X: 15158
T: Gigue Des Sucres
R: jig
M: 6/8
K: Dmajor
|:F|E2 A E2 A|EAB c3|dcd Bcd|f2 e cAF|
E2 A E2 A|EAB c2 c|dcd EFG|AcB A2:|
|:e|a3 gag|fdf e3|dcd Bcd|cde f2 e|
a2 a g2 g|fdf e3|dcd EFG|AcB A2:|

